images_elementary_svg/cmd/32/ko/underline.svg

<svg height="32" width="32" xmlns="http://www.w3.org/2000/svg" xmlns:xlink="http://www.w3.org/1999/xlink"><radialGradient id="a" cx="10.903473" cy="14.502974" gradientTransform="matrix(-1.2063324 .07952741 -.10938469 -2.3364203 24.195885 45.251108)" gradientUnits="userSpaceOnUse" r="6.225339" xlink:href="#b"/><linearGradient id="b"><stop offset="0" stop-color="#555"/><stop offset="1" stop-color="#666"/></linearGradient><linearGradient id="c" gradientUnits="userSpaceOnUse" x1="12.761326" x2="12.761326" xlink:href="#b" y1="33.638302" y2="11.638302"/><g transform="matrix(1.33333 0 0 1.33333 .163341 -11.350962)"><g fill="url(#a)" stroke="#000" stroke-opacity=".6" stroke-width=".750002" transform="scale(1.061984 .94163378)"><path d="m3.7885584 14.240962.0000001 1.592979 7.4153845.000001c-.379746 4.757985-2.9477927 8.481439-8.3312408 11.050304l.9828702 1.496644c6.6567116-3.261342 9.1139386-8.354396 9.1139386-14.139928zm13.4183146-1.59298v16.72629l2.099016-.02285v-16.72629z" fill="url(#a)" stroke="#000" stroke-opacity=".6" stroke-width=".750002"/><path d="m27.5 4.5-2.972656.0292969v1.5l2.972656-.0292969zm-21.9726562 2.0292969v1.5h12.9453122c.034424-.4958349.054688-.9952905.054688-1.5zm10.2851562 3.5000001c-.982564 5.258237-4.611497 9.423802-11.5820312 12.373047l.8339843 1.125c7.0473919-3.208613 10.4454519-7.749572 10.9628909-13.498047z" fill="#fff" opacity=".2" stroke="none" transform="matrix(.70622709 0 0 .79648998 -.115356 9.040928)"/></g><path d="m1.752716 29.885566.017578 2.234376h19.504467l-.01758-2.234376z" fill="url(#c)"/><path d="m1.752716 29.885566.00414 2.252736h19.50447l-.0041-2.252736z" fill="none" opacity=".61" stroke="#000" stroke-width=".750002"/><path d="m2.1302176 30.242557-.00272.769013h18.7500494l-.01548-.759479z" fill="#fff" opacity=".2"/></g></svg>

<?xml version="1.0" encoding="UTF-8" standalone="no"?>
<svg
   xmlns:dc="http://purl.org/dc/elements/1.1/"
   xmlns:cc="http://creativecommons.org/ns#"
   xmlns:rdf="http://www.w3.org/1999/02/22-rdf-syntax-ns#"
   xmlns:svg="http://www.w3.org/2000/svg"
   xmlns="http://www.w3.org/2000/svg"
   xmlns:xlink="http://www.w3.org/1999/xlink"
   xmlns:sodipodi="http://sodipodi.sourceforge.net/DTD/sodipodi-0.dtd"
   xmlns:inkscape="http://www.inkscape.org/namespaces/inkscape"
   height="32"
   width="32"
   version="1.1"
   id="svg43"
   sodipodi:docname="underline.svg"
   inkscape:version="0.92.4 (unknown)"
   inkscape:export-filename="/home/rizmut/Dokumen/Rizmut/Github/libreoffice-style-elementary/images_elementary/cmd/32/ko/underline.png"
   inkscape:export-xdpi="96"
   inkscape:export-ydpi="96">
  <metadata
     id="metadata49">
    <rdf:RDF>
      <cc:Work
         rdf:about="">
        <dc:format>image/svg+xml</dc:format>
        <dc:type
           rdf:resource="http://purl.org/dc/dcmitype/StillImage" />
        <dc:title></dc:title>
      </cc:Work>
    </rdf:RDF>
  </metadata>
  <defs
     id="defs47">
    <radialGradient
       inkscape:collect="always"
       xlink:href="#a"
       id="radialGradient844"
       cx="10.903473"
       cy="14.502974"
       fx="10.903473"
       fy="14.502974"
       r="6.2253389"
       gradientTransform="matrix(-1.2063324,0.07952741,-0.10938469,-2.3364203,24.195885,45.251108)"
       gradientUnits="userSpaceOnUse" />
  </defs>
  <sodipodi:namedview
     pagecolor="#ffffff"
     bordercolor="#666666"
     borderopacity="1"
     objecttolerance="10"
     gridtolerance="10"
     guidetolerance="10"
     inkscape:pageopacity="0"
     inkscape:pageshadow="2"
     inkscape:window-width="1366"
     inkscape:window-height="714"
     id="namedview45"
     showgrid="true"
     inkscape:zoom="5.6568543"
     inkscape:cx="4.4547814"
     inkscape:cy="9.4078081"
     inkscape:window-x="0"
     inkscape:window-y="28"
     inkscape:window-maximized="1"
     inkscape:current-layer="text836">
    <inkscape:grid
       type="xygrid"
       id="grid832" />
  </sodipodi:namedview>
  <linearGradient
     id="a">
    <stop
       offset="0"
       stop-color="#555"
       id="stop2" />
    <stop
       offset="1"
       stop-color="#666"
       id="stop4" />
  </linearGradient>
  <linearGradient
     id="b"
     gradientUnits="userSpaceOnUse"
     x1="12.761326"
     x2="12.761326"
     xlink:href="#a"
     y1="33.638302"
     y2="11.638302" />
  <linearGradient
     id="c">
    <stop
       offset="0"
       id="stop8" />
    <stop
       offset="1"
       stop-opacity="0"
       id="stop10" />
  </linearGradient>
  <radialGradient
     id="d"
     cx="40"
     cy="43.5"
     gradientTransform="matrix(.87733142 0 0 .75 -17.142285 -3.625)"
     gradientUnits="userSpaceOnUse"
     r="2"
     xlink:href="#c" />
  <radialGradient
     id="e"
     cx="9"
     cy="43.5"
     gradientTransform="matrix(.87733142 0 0 .75 -1.350319 -3.625)"
     gradientUnits="userSpaceOnUse"
     r="2"
     xlink:href="#c" />
  <linearGradient
     id="f"
     gradientTransform="matrix(.87733142 0 0 1 -5.736976 -14.5)"
     gradientUnits="userSpaceOnUse"
     x1="25"
     x2="25"
     y1="45"
     y2="42">
    <stop
       offset="0"
       stop-opacity="0"
       id="stop15" />
    <stop
       offset=".5"
       id="stop17" />
    <stop
       offset="1"
       stop-opacity="0"
       id="stop19" />
  </linearGradient>
  <linearGradient
     id="g"
     gradientTransform="matrix(.98244026 0 0 1.0032268 .121605 8.047357)"
     gradientUnits="userSpaceOnUse"
     x1="12.02772"
     x2="11.427851"
     xlink:href="#a"
     y1="25.544678"
     y2="4.392136" />
  <g
     transform="matrix(1.33333 0 0 1.33333 .163341 -11.350962)"
     id="g41">
    <g
       aria-label="기"
       transform="scale(1.061984,0.94163378)"
       style="font-style:normal;font-weight:normal;font-size:22.33795929px;line-height:1.25;font-family:sans-serif;letter-spacing:0px;word-spacing:0px;fill:url(#radialGradient844);fill-opacity:1;stroke:#000000;stroke-width:0.75000191;stroke-miterlimit:4;stroke-dasharray:none;stroke-opacity:0.6"
       id="text836">
      <path
         d="m 3.7885584,14.240962 1e-7,1.592979 7.4153845,1e-6 C 10.824197,20.591927 8.2561503,24.315381 2.8727022,26.884246 L 3.8555724,28.38089 C 10.512284,25.119548 12.969511,20.026494 12.969511,14.240962 Z m 13.4183146,-1.59298 v 16.72629 l 2.099016,-0.02285 v -16.72629 z"
         style="font-style:normal;font-variant:normal;font-weight:normal;font-stretch:normal;font-family:'Droid Sans';-inkscape-font-specification:'Droid Sans';fill:url(#radialGradient844);fill-opacity:1;stroke:#000000;stroke-width:0.75000191;stroke-miterlimit:4;stroke-dasharray:none;stroke-opacity:0.6"
         id="path1037"
         inkscape:connector-curvature="0"
         sodipodi:nodetypes="cccccccccccc" />
      <path
         style="font-style:normal;font-variant:normal;font-weight:normal;font-stretch:normal;font-family:'Droid Sans';-inkscape-font-specification:'Droid Sans';fill:#ffffff;fill-opacity:1;stroke:none;stroke-width:1;stroke-miterlimit:4;stroke-dasharray:none;stroke-opacity:0.6;opacity:0.2"
         d="M 27.5 4.5 L 24.527344 4.5292969 L 24.527344 6.0292969 L 27.5 6 L 27.5 4.5 z M 5.5273438 6.5292969 L 5.5273438 8.0292969 L 18.472656 8.0292969 C 18.50708 7.533462 18.527344 7.0340064 18.527344 6.5292969 L 5.5273438 6.5292969 z M 15.8125 10.029297 C 14.829936 15.287534 11.201003 19.453099 4.2304688 22.402344 L 5.0644531 23.527344 C 12.111845 20.318731 15.509905 15.777772 16.027344 10.029297 L 15.8125 10.029297 z "
         transform="matrix(0.70622709,0,0,0.79648998,-0.11535584,9.0409275)"
         id="path1629" />
    </g>
    <path
       d="m1.752716 29.885566.017578 2.234376h19.504467l-.01758-2.234376z"
       fill="url(#b)"
       id="path25" />
    <path
       d="m1.752716 29.885566.00414 2.252736h19.50447l-.0041-2.252736z"
       fill="none"
       opacity=".61"
       stroke="#000"
       stroke-width=".750002"
       id="path27" />
    <path
       d="m2.1302176 30.242557-.00272.769013h18.7500494l-.01548-.759479z"
       fill="#fff"
       opacity=".2"
       id="path29" />
  </g>
</svg>
